assets/images/ico_phone2.svg

<svg width="25" height="25" viewBox="0 0 25 25" fill="none" xmlns="http://www.w3.org/2000/svg">
<path d="M24.6257 21.0022C23.239 24.3278 19.9874 24.9106 18.9249 24.9106C18.6129 24.9106 13.7537 25.1683 6.7686 18.5408C1.14718 13.2072 0.46032 7.4717 0.400474 6.38195C0.34226 5.3205 0.646113 2.65777 4.30813 0.679363C4.76187 0.434205 5.66146 0.325638 5.89377 0.558008C5.99686 0.661133 9.07049 5.72021 9.15128 5.88782C9.23207 6.05516 9.2726 6.22005 9.2726 6.38168C9.2726 6.61269 9.10802 6.90165 8.7786 7.2483C8.44945 7.59495 8.09146 7.91276 7.70437 8.20146C7.31728 8.49042 6.95929 8.79653 6.62987 9.12005C6.30072 9.4433 6.13614 9.70941 6.13614 9.91729C6.15845 10.4569 6.60049 12.3896 9.9679 15.3491C13.3359 18.3096 14.9582 19.1435 15.1141 19.2012C15.2702 19.2589 15.4 19.2875 15.5039 19.2875C15.712 19.2875 15.9778 19.1231 16.3012 18.7939C16.6244 18.4644 17.7117 16.9738 18.0582 16.6443C18.4048 16.3154 18.6937 16.1507 18.9249 16.1507C19.0865 16.1507 19.2511 16.191 19.4184 16.2718C19.5859 16.3526 24.6502 19.3169 24.7471 19.4159C25.0098 19.6853 24.8243 20.526 24.6257 21.0022Z" fill="white"/>
</svg>

<svg width="25" height="25" fill="none" xmlns="http://www.w3.org/2000/svg"><path d="M24.626 21.002c-1.387 3.326-4.639 3.909-5.701 3.909-.312 0-5.171.257-12.156-6.37C1.147 13.207.46 7.47.4 6.38.342 5.322.646 2.659 4.308.68 4.762.434 5.661.326 5.894.558 5.997.661 9.07 5.72 9.15 5.888c.081.167.122.332.122.494 0 .23-.165.52-.494.866a8.42 8.42 0 01-1.075.953 10.46 10.46 0 00-1.074.92c-.33.322-.494.588-.494.796.022.54.464 2.473 3.832 5.432 3.368 2.96 4.99 3.794 5.146 3.852.156.058.286.087.39.087.208 0 .474-.165.797-.494.323-.33 1.41-1.82 1.757-2.15.347-.329.636-.493.867-.493.162 0 .326.04.493.12.168.082 5.232 3.046 5.33 3.145.262.27.076 1.11-.122 1.586z" fill="#fff"/></svg>
